src/images/linkedin.svg

<?xml version="1.0" encoding="UTF-8"?>
<svg width="40px" height="40px" viewBox="0 0 40 40" version="1.1" xmlns="http://www.w3.org/2000/svg" xmlns:xlink="http://www.w3.org/1999/xlink">
    <!-- Generator: Sketch 54.1 (76490) - https://sketchapp.com -->
    <title>Group 3</title>
    <desc>Created with Sketch.</desc>
    <defs>
        <polygon id="path-1" points="0.000333333333 0.000333333333 40 0.000333333333 40 40 0.000333333333 40"></polygon>
    </defs>
    <g id="Page-1" stroke="none" stroke-width="1" fill="none" fill-rule="evenodd">
        <g id="Contact" transform="translate(-211.000000, -944.000000)">
            <g id="Social" transform="translate(52.000000, 944.000000)">
                <g id="Group-3" transform="translate(159.000000, 0.000000)">
                    <mask id="mask-2" fill="white">
                        <use xlink:href="#path-1"></use>
                    </mask>
                    <g id="Clip-2"></g>
                    <path d="M29.917,29.0836667 L25.4995,29.0836667 L25.4995,22.667 C25.4995,21.0003333 24.8328333,19.8328333 23.3336667,19.8328333 C22.1661667,19.8328333 21.5836667,20.5836667 21.2503333,21.3328333 C21.167,21.5836667 21.167,22.0003333 21.167,22.3328333 L21.167,28.9995 L16.8336667,28.9995 C16.8336667,28.9995 16.9161667,17.667 16.8336667,16.667 L21.167,16.667 L21.167,18.5828333 C21.417,17.7495 22.8336667,16.4995 25.0003333,16.4995 C27.7495,16.4995 29.917,18.2503333 29.917,22.0836667 L29.917,29.0836667 Z M12.417,15.167 C11.0003333,15.167 10.0836667,14.2503333 10.0836667,13.0003333 C10.0836667,11.7503333 11.0003333,10.8336667 12.417,10.8336667 C13.8336667,10.8336667 14.7503333,11.7503333 14.7503333,13.0003333 C14.7503333,14.2503333 13.917,15.167 12.417,15.167 L12.417,15.167 Z M10.667,29.0836667 L14.5003333,29.0836667 L14.5003333,16.7503333 L10.667,16.7503333 L10.667,29.0836667 Z M20.0003333,0.000333333333 C8.95866667,0.000333333333 0.000333333333,8.95866667 0.000333333333,20.0003333 C0.000333333333,31.042 8.95866667,40.0003333 20.0003333,40.0003333 C31.042,40.0003333 40.0003333,31.042 40.0003333,20.0003333 C40.0003333,8.95866667 31.042,0.000333333333 20.0003333,0.000333333333 L20.0003333,0.000333333333 Z" id="Fill-1" fill="#FFFFFF" mask="url(#mask-2)"></path>
                </g>
            </g>
        </g>
    </g>
</svg>

<svg width="40" height="40" xmlns="http://www.w3.org/2000/svg" xmlns:xlink="http://www.w3.org/1999/xlink"><defs><path id="a" d="M0 0h40v40H0z"/></defs><g fill="none" fill-rule="evenodd"><mask id="b" fill="#fff"><use xlink:href="#a"/></mask><path d="M29.917 29.084h-4.418v-6.417c0-1.667-.666-2.834-2.165-2.834-1.168 0-1.75.75-2.084 1.5-.083.25-.083.667-.083 1V29h-4.333s.082-11.333 0-12.333h4.333v1.916c.25-.833 1.667-2.083 3.833-2.083 2.75 0 4.917 1.75 4.917 5.584v7zm-17.5-13.917c-1.417 0-2.333-.917-2.333-2.167 0-1.25.916-2.166 2.333-2.166 1.417 0 2.333.916 2.333 2.166s-.833 2.167-2.333 2.167zm-1.75 13.917H14.5V16.75h-3.833v12.334zM20 0C8.96 0 0 8.96 0 20 0 31.042 8.96 40 20 40c11.042 0 20-8.958 20-20C40 8.96 31.042 0 20 0z" fill="#FFF" mask="url(#b)"/></g></svg>
